!!!!SEGMENT: pl-kk--kk-i-2--051-001_pekiel-bartlomiej--missa-brevis-kyrie.krn
!!!cenid: 16xx:1729
!!!COM: Pękiel, Bartłomiej
!!!COM-rismID: pe30105642
!!!CDT: <1633-~1670
!!!CNT: Polish
!!!OPR: Missa Brevis
!!!OTL: Kyrie
!!!OMV: 001
!!!PDT: 1661
!!!AGN: Sacred; Mass
!!!SMS-siglum: PL-Kk
!!!SMS-shelfmark: Kk.I.2
!!!SMS-shelfwork: 051-001 M
!!!NIFC-rismSourceID: 300258069
!!!AIN: 1 alto 1 bass 1 soprn 1 tenor
**kern	**text	**kern	**text	**kern	**text	**kern	**text
*part4	*part4	*part3	*part3	*part2	*part2	*part1	*part1
*staff4	*staff4	*staff3	*staff3	*staff2	*staff2	*staff1	*staff1
*Ibass	*	*Itenor	*	*Ialto	*	*Isoprn	*
*I"BASSUS.	*	*I"TENOR.	*	*I"ALTUS.	*	*I"CANTUS.	*
*mI"Basso	*	*mI"Tenore	*	*mI"Alto	*	*mI"Soprano	*
*I'B	*	*I'T	*	*I'A	*	*I'S	*
*clefF4	*	*clefC4	*	*clefC4	*	*clefC3	*
*	*	*mclefGv2	*	*mclefGv2	*	*mclefG2	*
*k[b-]	*	*k[b-]	*	*k[b-]	*	*k[b-]	*
*d:	*	*d:	*	*d:	*	*d:	*
*M2/1	*	*M2/1	*	*M2/1	*	*M2/1	*
*met(C|)	*	*met(C|)	*	*met(C|)	*	*met(C|)	*
=1	=1	=1	=1	=1	=1	=1	=1
*2\right	*	*2\right	*	*2\right	*	*2\right	*
!LO:MO:mod=!null:null	!	!LO:MO:mod=!null:null	!	!LO:MO:mod=!null:null	!	!LO:MO:mod=!null:null	!
!LO:TX:t=P:problem:all\right	!	!LO:TX:t=P:problem:all\right	!	!LO:TX:t=P:problem:all\right	!	!LO:TX:t=P:problem:all\right	!
!LO:MO:mod=!null:null	!	!	!	!	!	!	!
!LO:TX:t=P:problem:kreska pseudotaktowa	!	!	!	!	!	!	!
!LO:MO:mod=!null:null	!	!LO:MO:mod=!null:null	!	!LO:MO:mod=!null:null	!	!	!
!LO:TX:t=P:problem:ozdobna litera K na początku pięciolinii	!	!LO:TX:t=P:problem:ozdobna litera K na początku pięciolinii	!	!	!	!LO:MO:mod=!null:null	!
!	!	!	!	!LO:TX:t=P:problem:ozdobna litera K na początku pięciolinii	!	!LO:TX:t=P:problem:ozdobna litera K na początku pięciolinii	!
1GG	Ky-	1B-	Ky-	1G	Ky-	1d	Ky-
2C/	-rie	2c\	-rie	2G/	-ri-	2e-X\	-ri-
!	!	!LO:MO:mod=!null:null	!	!	!	!LO:MO:mod=!null:null	!
!	!	!LO:TX:t=P:problem:kreska pseudotaktowa	!	!	!	!LO:TX:t=P:problem:kreska pseudotaktowa	!
!	!	!	!	!LO:MO:mod=!null:null	!	!	!
!	!	!	!	!LO:TX:b:t=P:problem:# below	!	!	!
2D/	e-	2A/	e-	2F#X/	-e	2d\	-e
=2-	=2-	=2	=2	=2-	=2-	=2	=2
*	*	*	*	*lig	*	*	*
!	!LO:MO:mod=-lei-	!	!LO:MO:mod=-lei-	!	!	!	!
1GG	-ley-	1.G	-ley-	1B-X	e-	1d	e-
!LO:MO:mod=!null:null	!	!	!	!	!	!	!
!LO:TX:t=P:problem:kreska pseudotaktowa	!	!	!	!	!	!LO:MO:mod=!null:null	!
!	!	!	!	!	!	!LO:TX:t=P:problem:kreska pseudotaktowa	!
!	!	!	!	!	!LO:MO:mod=-lei-	!	!LO:MO:mod=-lei-
1D	-son	.	.	1A	-ley-	1d	-ley-
!	!	!LO:MO:mod=!null:null	!	!	!	!	!
!	!	!LO:TX:t=P:problem:kreska pseudotaktowa	!	!	!	!	!
!	!	!LO:MO:mod=!null:null	!	!	!	!	!
!	!	!LO:TX:b:t=P:problem:# below	!	!	!	!	!
.	.	2F#X/	.	.	.	.	.
*	*	*	*	*Xlig	*	*	*
=3	=3	=3	=3	=3-	=3-	=3	=3
!	!	!	!	!LO:MO:mod=!null:null	!	!	!
!	!	!	!	!LO:TX:t=P:problem:kreska pseudotaktowa	!	!	!
00r	.	2.B-/	.	1G	-son	1d	-son
.	.	4A/	.	.	.	.	.
*	*	*	*	*	*	*	*ij
.	.	4G/	.	00r	.	2d\	Ky-
.	.	4F#X/	.	.	.	.	.
!	!	!LO:MO:mod=!null:null	!	!	!	!	!
!	!	!LO:TX:t=P:problem:kreska pseudotaktowa	!	!	!	!	!
.	.	2G/	.	.	.	2B-/	-ri-
=4-	=4-	=4	=4	=4-	=4-	=4-	=4-
!	!	!	!	!	!	!LO:MO:mod=!null:null	!
!	!	!	!	!	!	!LO:TX:t=P:problem:kreska pseudotaktowa	!
.	.	4C/	.	.	.	1e-X	-e
.	.	4D/	.	.	.	.	.
.	.	4E-X/	.	.	.	.	.
.	.	4F/	.	.	.	.	.
.	.	4G/	.	.	.	2d\	e-
.	.	4A/	.	.	.	.	.
!	!	!	!	!	!	!	!LO:MO:mod=-lei-
.	.	4B-\	.	.	.	1g\	-ley-
!	!	!LO:MO:mod=!null:null	!	!	!	!	!
!	!	!LO:TX:t=P:problem:kreska pseudotaktowa	!	!	!	!	!
.	.	4c\	.	.	.	.	.
=5-	=5-	=5	=5	=5-	=5-	=5-	=5-
*	*ij	*	*	*	*	*	*
1D	Ky-	2.A/	.	.	.	.	.
.	.	.	.	.	.	4f\	.
!	!	!	!	!	!	!LO:MO:mod=!null:null	!
!	!	!	!	!	!	!LO:TX:t=P:problem:kreska pseudotaktowa	!
.	.	4G/	.	.	.	4eny\	.
!	!	!	!	!LO:MO:mod=!null:null	!	!	!
!	!	!	!	!LO:TX:t=P:problem:kreska pseudotaktowa	!	!	!
2D/	-rie-	4A/	.	1r	.	2f\	.
.	.	4F/	.	.	.	.	.
!LO:MO:mod=!null:null	!	!	!	!	!	!	!
!LO:TX:t=P:problem:kreska pseudotaktowa	!	!	!	!	!	!	!
2BB-/	-e-	2.B-\	.	.	.	1d\	.
=6	=6	=6-	=6-	=6	=6	=6-	=6-
*	*	*	*	*	*ij	*	*
!	!LO:MO:mod=-lei-	!	!	!	!	!	!
1E-X	-ley-	.	.	1G	Ky-	.	.
.	.	4A/	.	.	.	.	.
!	!	!	!	!	!	!LO:MO:mod=!null:null	!
!	!	!	!	!	!	!LO:TX:t=P:problem:kreska pseudotaktowa	!
.	.	4G/	.	.	.	2c\	-son
!	!	!LO:MO:mod=!null:null	!	!	!	!	!
!	!	!LO:TX:t=P:problem:kreska pseudotaktowa	!	!	!	!	!
.	.	4A/	.	.	.	.	.
*	*	*	*	*	*	*	*Xij
2.D/	.	2B-\	.	2G/	-ri-	1d	e-
!	!	!LO:MO:mod=!null:null	!	!LO:MO:mod=!null:null	!	!	!
!	!	!LO:TX:t=P:problem:kreska pseudotaktowa	!	!LO:TX:t=P:problem:kreska pseudotaktowa	!	!	!
.	.	2A/	.	2F#X/	-e	.	.
4C/	.	.	.	.	.	.	.
=7-	=7-	=7	=7	=7	=7	=7-	=7-
4BB-/	.	2.G/	.	2.B-/	e-	0d	-ley-
4AA/	.	.	.	.	.	.	.
1GG	.	.	.	.	.	.	.
.	.	4A/	.	4A/	.	.	.
.	.	4B-\	.	2G/	.	.	.
.	.	4c\	.	.	.	.	.
!LO:MO:mod=!null:null	!	!	!	!	!LO:MO:mod=-lei-	!	!
!LO:TX:t=P:problem:kreska pseudotaktowa	!	!	!	!	!	!	!
2FF#X/	.	4d\	.	2.A/	-ley-	.	.
!	!	!LO:MO:mod=!null:null	!	!	!	!	!
!	!	!LO:TX:t=P:problem:kreska pseudotaktowa	!	!	!	!	!
!	!	!LO:SIC:v:t=custos B	!	!	!	!	!
.	.	4c\	.	.	.	.	.
!	!	!LO:LB:g=original	!	!	!	!	!
=8	=8	=8	=8	=8-	=8-	=8-	=8-
!	!	!	!	!	!	!LO:MO:mod=!null:null	!
!	!	!	!	!	!	!LO:TX:t=P:problem:kreska pseudotaktowa	!
2GG/	-son	2.B-\	.	.	.	0d	-son
.	.	.	.	8G/L	.	.	.
.	.	.	.	8F/J	.	.	.
*	*Xij	*	*	*	*	*	*
*	*ij	*	*	*	*	*	*
!	!	!	!	!LO:MO:mod=!null:null	!	!	!
!	!	!	!	!LO:TX:t=P:problem:kreska pseudotaktowa	!	!	!
2G\	Ky-	.	.	2G/	.	.	.
.	.	8A/L	.	.	.	.	.
!	!	!LO:MO:mod=!null:null	!	!	!	!	!
!	!	!LO:TX:t=P:problem:kreska pseudotaktowa	!	!	!	!	!
.	.	8G/J	.	.	.	.	.
2G\	-rie	1A	.	2D/	-son	.	.
*	*	*	*	*	*Xij	*	*
*	*	*	*	*	*ij	*	*
!LO:MO:mod=!null:null	!	!	!	!	!	!	!
!LO:TX:t=P:problem:kreska pseudotaktowa	!	!	!	!	!	!	!
2F#X\	e-	.	.	2d\	Ky-	.	.
=9	=9	=9-	=9-	=9-	=9-	=9	=9
!	!LO:MO:mod=-lei-	!	!	!	!	!	!
2.B-\	-ley-	2.G/	.	2d\	-ri-	1r	.
.	.	.	.	2B-\	-e	.	.
4A\	.	4F/	.	.	.	.	.
1G	-son	4E-X/	.	1e-X	e-	2r	.
.	.	4D/	.	.	.	.	.
!	!	!	!	!	!	!LO:MO:mod=!null:null	!
!	!	!	!	!	!	!LO:TX:t=P:problem:kreska pseudotaktowa	!
.	.	2C/	.	.	.	2c/	Ky-
*	*Xij	*	*	*	*	*	*
=10-	=10-	=10-	=10-	=10-	=10-	=10	=10
2.G\	E-	0.G	.	1d	.	2c/	-ri-
!	!	!	!	!	!	!LO:MO:mod=!null:null	!
!	!	!	!	!	!	!LO:TX:t=P:problem:kreska pseudotaktowa	!
!	!	!	!	!	!	!LO:MO:mod=!null:null	!
!	!	!	!	!	!	!LO:N:acc=#	!
!	!	!	!	!	!	!LO:SIC:v:t=custos e	!
.	.	.	.	.	.	2Bn/	-e
!LO:MO:mod=!null:null	!	!	!	!	!	!	!
!LO:TX:t=P:problem:kreska pseudotaktowa	!	!	!	!	!	!	!
!LO:SIC:v:t=custos E	!	!	!	!	!	!	!
4F\	.	.	.	.	.	.	.
!LO:LB:g=original	!	!	!	!	!	!LO:LB:g=original	!
4E-X\	.	.	.	2c\	.	2e-X\	e-
8D\L	.	.	.	.	.	.	.
8C\J	.	.	.	.	.	.	.
!LO:MO:mod=!null:null	!	!	!	!	!	!	!
!LO:TX:a:t=P:problem:# above	!	!	!	!	!	!	!
!LO:MO:mod=!null:null	!	!	!	!	!	!	!
!LO:N:acc=#	!	!	!	!	!	!	!
2BBn/	.	.	.	2d\	.	1d\	.
=11-	=11-	=11-	=11-	=11-	=11-	=11-	=11-
!	!LO:MO:mod=-lei-	!	!	!	!LO:MO:mod=-lei-	!	!
1C	-ley-	.	.	1e-X	-ley-	.	.
!	!	!	!	!	!	!	!LO:MO:mod=-lei-
.	.	.	.	.	.	2c/	-ley-
!LO:MO:mod=!null:null	!	!LO:MO:mod=!null:null	!	!	!	!	!
!LO:TX:t=P:problem:podwójna kreska pseudotaktowa	!	!LO:TX:t=P:problem:podwójna kreska pseudotaktowa	!	!LO:MO:mod=!null:null	!	!LO:MO:mod=!null:null	!
!	!	!	!	!LO:TX:t=P:problem:podwójna kreska pseudotaktowa	!	!LO:TX:t=P:problem:podwójna kreska pseudotaktowa	!
!	!	!	!	!	!	!LO:MO:mod=!null:null	!
!	!	!LO:MO:mod=!null:null	!	!LO:MO:mod=!null:null	!	!LO:N:acc=#	!
!	!	!LO:N:vis=0	!	!LO:N:vis=0	!	!	!
1GG;>	-son	1G;>	-son	1d;<	-son	1Bn;>	-son
*	*	*	*	*	*Xij	*	*
!	!	!	!	!LO:LB:g=original	!	!	!
=12||	=12||	=12||	=12||	=12||	=12||	=12||	=12||
*M2/1	*	*M2/1	*	*M2/1	*	*M2/1	*
*met(C|)	*	*met(C|)	*	*met(C|)	*	*met(C|)	*
!LO:MO:mod=!null:null	!	!LO:MO:mod=!null:null	!	!LO:MO:mod=!null:null	!	!LO:MO:mod=!null:null	!
!LO:TX:t=P:problem:ozdobna litera C na początku pięciolinii	!	!LO:TX:t=P:problem:ozdobna litera C na początku pięciolinii	!	!	!	!	!
!	!	!LO:MO:mod=!null:null	!	!LO:TX:t=P:problem:ozdobna litera C na początku pięciolinii	!	!LO:TX:t=P:problem:ozdobna litera C na początku pięciolinii	!
!	!LO:MO:mod=Chri-	!LO:TX:t=P:problem:kreska pseudotaktowa	!	!	!	!	!
1G	CHri-	1r	.	00r	.	00r	.
!	!	!	!LO:MO:mod=Chri-	!	!	!	!
4D\	-ſte	1d	CHriſ-	.	.	.	.
4E\	.	.	.	.	.	.	.
4F\	.	.	.	.	.	.	.
!LO:MO:mod=!null:null	!	!	!	!	!	!	!
!LO:TX:t=P:problem:kreska pseudotaktowa	!	!	!	!	!	!	!
4D\	.	.	.	.	.	.	.
=13	=13	=13-	=13-	=13-	=13-	=13-	=13-
!	!	!	!LO:MO:mod=-ste	!	!	!	!
4E\	.	4G/	-te	.	.	.	.
4F\	.	4A/	.	.	.	.	.
1G	.	4B-/	.	.	.	.	.
!	!	!LO:MO:mod=!null:null	!	!	!	!	!
!	!	!LO:TX:t=P:problem:kreska pseudotaktowa	!	!	!	!	!
.	.	4G/	e-	.	.	.	.
.	.	4A/	.	.	.	.	.
.	.	4D/	.	.	.	.	.
!LO:MO:mod=!null:null	!	!	!	!	!	!	!
!LO:TX:t=P:problem:kreska pseudotaktowa	!	!	!	!	!	!	!
!	!	!	!LO:MO:mod=-lei-	!	!	!	!
2F#X\	.	4d\	-ley-	.	.	.	.
!	!	!LO:MO:mod=!null:null	!	!	!	!	!
!	!	!LO:TX:t=P:problem:kreska pseudotaktowa	!	!	!	!	!
.	.	4c\	.	.	.	.	.
=14	=14	=14	=14	=14-	=14-	=14-	=14-
!	!	!	!	!LO:MO:mod=!null:null	!	!	!
!	!	!	!	!LO:TX:t=P:problem:kreska pseudotaktowa	!	!	!LO:MO:mod=Chri-
2G\	.	4B-\	.	0r	.	2g\	CHri-
.	.	4c\	.	.	.	.	.
2B-\	.	1d	.	.	.	4d\	-ste
!	!	!	!	!	!	!LO:MO:mod=!null:null	!
!	!	!	!	!	!	!LO:TX:t=P:problem:kreska pseudotaktowa	!
.	.	.	.	.	.	4e\	.
1A	.	.	.	.	.	4f\	.
.	.	.	.	.	.	8e\L	e-
.	.	.	.	.	.	8d\J	.
!	!	!LO:MO:mod=!null:null	!	!	!	!	!
!	!	!LO:TX:t=P:problem:kreska pseudotaktowa	!	!	!	!	!
.	.	2c\	.	.	.	4e\	.
!	!	!	!	!	!	!LO:MO:mod=!null:null	!
!	!	!	!	!	!	!LO:TX:t=P:problem:kreska pseudotaktowa	!
.	.	.	.	.	.	4f\	.
=15-	=15-	=15	=15	=15	=15	=15	=15
!	!	!	!	!	!LO:MO:mod=Chri-	!	!
2G\	.	2B-\	.	1d	CHriſ-	2g\	.
!LO:MO:mod=!null:null	!	!	!	!	!	!	!
!LO:TX:t=P:problem:kreska pseudotaktowa	!	!	!	!	!	!	!
2F\	.	2A\	-son	.	.	1a	.
1E-X	e-	2B-\	.	4G/	-ſte	.	.
.	.	.	.	4A/	.	.	.
!	!	!LO:MO:mod=!null:null	!	!	!	!LO:MO:mod=!null:null	!
!	!	!LO:TX:t=P:problem:kreska pseudotaktowa	!	!	!	!LO:TX:t=P:problem:kreska pseudotaktowa	!
.	.	2r	.	4B-\	.	2g\	.
!	!	!	!	!LO:MO:mod=!null:null	!	!	!
!	!	!	!	!LO:TX:t=P:problem:kreska pseudotaktowa	!	!	!
.	.	.	.	4G/	.	.	.
=16-	=16-	=16	=16	=16	=16	=16	=16
!	!LO:MO:mod=-lei-	!	!	!	!	!	!
2D/	-ley-	0r	.	4A\	.	2f\	.
.	.	.	.	4B-\	.	.	.
!LO:MO:mod=!null:null	!	!	!	!	!	!	!
!LO:TX:t=P:problem:kreska pseudotaktowa	!	!	!	!	!	!	!
2C/	-son	.	.	1c	e-	2e-X\	.
!	!	!	!	!	!	!	!LO:MO:mod=-lei-
1G	Chri-	.	.	.	.	1d	-ley-
!	!	!	!	!LO:MO:mod=!null:null	!	!	!
!	!	!	!	!LO:N:acc=#	!LO:MO:mod=-lei-	!	!
.	.	.	.	2Bn\	-ley-	.	.
=17-	=17-	=17-	=17-	=17-	=17-	=17-	=17-
*	*	*	*ij	*	*	*	*
!	!	!	!	!LO:MO:mod=!null:null	!	!LO:MO:mod=!null:null	!
!	!	!	!LO:MO:mod=Chri-	!LO:TX:t=P:problem:kreska pseudotaktowa	!	!LO:TX:t=P:problem:kreska pseudotaktowa	!
4C/	-ſte	2c\	CHri-	1c	-son	1e-X	-son
4D/	.	.	.	.	.	.	.
4E-X\	.	4G/	-ſte	.	.	.	.
!LO:MO:mod=!null:null	!	!	!	!	!	!	!
!	!	!LO:MO:mod=!null:null	!	!	!	!	!
!LO:TX:t=P:problem:kreska pseudotaktowa	!	!LO:TX:t=P:problem:kreska pseudotaktowa	!	!	!	!	!
!LO:SIC:v:t=custos D	!	!LO:SIC:v:t=custos B	!	!	!	!	!
4C/	.	4A/	.	.	.	.	.
!LO:LB:g=original	!	!LO:LB:g=original	!	!	!	!	!
4D\	.	4B-\	.	0r	.	0r	.
4E-\	.	4G/	.	.	.	.	.
4F\	.	4A/	.	.	.	.	.
!LO:MO:mod=!null:null	!	!	!	!	!	!	!
!LO:TX:t=P:problem:kreska pseudotaktowa	!	!	!	!	!	!	!
4D\	.	4B-\	.	.	.	.	.
=18	=18	=18-	=18-	=18-	=18-	=18-	=18-
4E\	.	2c\	e-	.	.	.	.
4F\	.	.	.	.	.	.	.
!	!	!	!LO:MO:mod=-lei-	!	!	!	!
1G	.	2B-\	-ley-	.	.	.	.
*	*	*	*	*	*ij	*	*
!	!	!LO:MO:mod=!null:null	!	!	!LO:MO:mod=Chri-	!	!
!	!	!LO:TX:t=P:problem:kreska pseudotaktowa	!	!	!	!	!
.	.	1A	-son	1d	CHri-	1r	.
!LO:MO:mod=!null:null	!	!	!	!	!	!	!
!LO:TX:t=P:problem:kreska pseudotaktowa	!	!	!	!	!	!	!
2F\	.	.	.	.	.	.	.
*	*	*	*Xij	*	*	*	*
=19	=19	=19	=19	=19-	=19-	=19-	=19-
1E-X	.	0r	.	4G/	-ſte	1g	Chr(i-
.	.	.	.	4A/	.	.	.
.	.	.	.	4B-y/	.	.	.
!	!	!	!	!LO:MO:mod=!null:null	!	!	!
!	!	!	!	!LO:TX:t=P:problem:kreska pseudotaktowa	!	!	!
.	.	.	.	4G/	.	.	.
2F\	.	.	.	4A/	.	4c\	.
.	.	.	.	4B-\	.	4d\	.
2C/	.	.	.	2.c\	e-	4e-X\	.
!	!	!	!	!	!	!LO:MO:mod=!null:null	!
!	!	!	!	!	!	!LO:TX:t=P:problem:kreska pseudotaktowa	!
.	.	.	.	.	.	4c/	.
=20-	=20-	=20-	=20-	=20-	=20-	=20	=20
*lig	*	*	*	*	*	*	*
!	!	!LO:MO:mod=!null:null	!	!	!	!	!
!	!	!LO:TX:t=P:problem:kreska pseudotaktowa	!	!	!	!	!
1G	.	1r	.	.	.	2.d\	-st)e
.	.	.	.	8B-\L	.	.	.
.	.	.	.	8A\J	.	.	.
!	!	!	!	!LO:MO:mod=!null:null	!	!	!
!	!	!	!	!LO:TX:t=P:problem:kreska pseudotaktowa	!	!	!
!	!	!	!	!	!LO:MO:mod=-lei-	!	!
.	.	.	.	2B-\	-ley-	.	.
!	!	!	!	!	!	!LO:MO:mod=!null:null	!
!	!	!	!	!	!	!LO:TX:t=P:problem:kreska pseudotaktowa	!
!	!	!	!	!	!	!LO:SIC:v:t=custos f	!
.	.	.	.	.	.	4e\	.
!	!	!	!	!	!	!LO:LB:g=original	!
*	*	*	*ij	*	*	*	*
!	!	!	!LO:MO:mod=Chri-	!	!	!	!
1F	.	1d	CHri-	1A	-son	4f\	.
.	.	.	.	.	.	4g\	.
.	.	.	.	.	.	4a\	.
!	!	!	!	!	!	!LO:MO:mod=!null:null	!
!	!	!	!	!	!	!LO:TX:t=P:problem:kreska pseudotaktowa	!
.	.	.	.	.	.	4f\	.
*	*	*	*	*	*Xij	*	*
*Xlig	*	*	*	*	*	*	*
=21-	=21-	=21-	=21-	=21-	=21-	=21	=21
*lig	*	*	*	*	*	*	*
*	*	*	*	*	*ij	*	*
!	!	!	!	!	!LO:MO:mod=Chri-	!	!
1E-X	.	4G/	-ſte	2B-\	CHri-	1.g	e-
.	.	4A/	.	.	.	.	.
.	.	4B-/	.	2G/	-ſte	.	.
!	!	!LO:MO:mod=!null:null	!	!	!	!	!
!	!	!LO:TX:t=P:problem:kreska pseudotaktowa	!	!	!	!	!
.	.	4G/	.	.	.	.	.
!	!	!	!	!LO:MO:mod=!null:null	!	!	!
!	!	!	!	!LO:TX:t=P:problem:kreska pseudotaktowa	!	!	!
1D	.	4A/	.	1d	e-	.	.
.	.	4G/	.	.	.	.	.
.	.	4A/	.	.	.	2f\	.
.	.	4B-\	.	.	.	.	.
*Xlig	*	*	*	*	*	*	*
=22-	=22-	=22-	=22-	=22	=22	=22-	=22-
!	!	!	!	!	!	!LO:MO:mod=!null:null	!
!	!	!	!	!	!	!LO:TX:t=P:problem:kreska pseudotaktowa	!LO:MO:mod=-lei-
1C	e-	4c\	.	2G/	.	1e-X	-ley-
.	.	4B-\	.	.	.	.	.
.	.	4A\	.	1c	.	.	.
!	!	!LO:MO:mod=!null:null	!	!	!	!	!
!	!	!LO:TX:t=P:problem:kreska pseudotaktowa	!	!	!	!	!
.	.	4G/	.	.	.	.	.
0D	-ley-	4F#X/	.	.	.	1d	.
.	.	4D/	.	.	.	.	.
.	.	2.G/	e-	2B-\	.	.	.
=23-	=23-	=23-	=23-	=23-	=23-	=23-	=23-
!	!	!	!	!	!	!LO:MO:mod=!null:null	!
!	!	!	!	!	!	!LO:TX:t=P:problem:podwójna kreska pseudotaktowa	!
!	!	!	!	!	!	!LO:MO:mod=!null:null	!
!	!	!	!	!	!LO:MO:mod=-lei-	!LO:N:vis=1	!
.	.	.	.	1A	-ley-	0d;>	-son
!	!	!LO:MO:mod=!null:null	!	!	!	!	!
!	!	!LO:TX:b:t=P:problem:# below	!	!	!	!	!
.	.	8F#X/L	.	.	.	.	.
.	.	8E/J	.	.	.	.	.
!	!	!	!LO:MO:mod=-lei-	!	!	!	!
.	.	2F#X/	-ley-	.	.	.	.
!LO:MO:mod=!null:null	!	!LO:MO:mod=!null:null	!	!LO:MO:mod=!null:null	!	!	!
!LO:TX:t=P:problem:podwójna kreska pseudotaktowa	!	!LO:TX:t=P:problem:podwójna kreska pseudotaktowa	!	!	!	!	!
!	!	!	!	!LO:TX:t=P:problem:podwójna kreska pseudotaktowa	!	!	!
!	!	!	!	!LO:MO:mod=!null:null	!	!	!
!	!	!	!	!LO:N:acc=#	!	!	!
1GG;>	-son	1G;>	-son	1Bnl	-son	.	.
*	*	*	*Xij	*	*Xij	*	*
!	!	!LO:LB:g=original	!	!LO:LB:g=original	!	!	!
=24||	=24||	=24||	=24||	=24||	=24||	=24||	=24||
*M2/1	*	*M2/1	*	*M2/1	*	*M2/1	*
*met(C|)	*	*met(C|)	*	*met(C|)	*	*met(C|)	*
!LO:MO:mod=!null:null	!	!LO:MO:mod=!null:null	!	!	!	!	!
!LO:TX:t=P:problem:ozdobna litera K na początku pięciolinii	!	!LO:TX:t=P:problem:ozdobna litera K na początku pięciolinii	!	!LO:MO:mod=!null:null	!	!LO:MO:mod=!null:null	!
!	!	!LO:MO:mod=!null:null	!	!LO:TX:t=P:problem:ozdobna litera K na początku pięciolinii	!	!LO:TX:t=P:problem:ozdobna litera K na początku pięciolinii	!
!	!	!LO:TX:t=P:problem:kreska pseudotaktowa	!	!	!	!	!
1G	Ky-	1r	.	0r	.	00r	.
2F\	-ri-	1d	Ky-	.	.	.	.
!LO:MO:mod=!null:null	!	!	!	!	!	!	!
!LO:TX:t=P:problem:kreska pseudotaktowa	!	!	!	!	!	!	!
2D\	-e	.	.	.	.	.	.
=25	=25	=25-	=25-	=25-	=25-	=25-	=25-
!	!	!	!	!LO:MO:mod=!null:null	!	!	!
!	!	!	!	!LO:TX:t=P:problem:kreska pseudotaktowa	!	!	!
2E\	e-	2c\	-ri-	1r	.	.	.
!	!	!LO:MO:mod=!null:null	!	!	!	!	!
!	!	!LO:TX:t=P:problem:kreska pseudotaktowa	!	!	!	!	!
2F#X\	.	2A\	-e	.	.	.	.
2G\	.	4B-\	e-	1d	Ky-	.	.
.	.	4c\	.	.	.	.	.
!LO:MO:mod=!null:null	!	!	!	!	!	!	!
!LO:TX:t=P:problem:kreska pseudotaktowa	!	!	!	!	!	!	!
!LO:SIC:v:t=custos A	!	!	!	!	!	!	!
2B-\	.	4d\	.	.	.	.	.
.	.	4e\	.	.	.	.	.
!LO:LB:g=original	!	!	!	!	!	!	!
=26	=26	=26-	=26-	=26-	=26-	=26-	=26-
*	*	*lig	*	*	*	*	*
!	!	!	!LO:MO:mod=-lei-	!	!	!	!
2A\	.	1f	-ley-	2c\	-ri-	0r	.
!LO:MO:mod=!null:null	!	!	!	!LO:MO:mod=!null:null	!	!	!
!LO:TX:t=P:problem:kreska pseudotaktowa	!	!	!	!	!	!	!
!	!	!	!	!LO:TX:t=P:problem:kreska pseudotaktowa	!	!	!
2F\	.	.	.	2A\	-e	.	.
2G\	.	1e	.	2B-\	e-	.	.
!	!	!	!	!	!LO:MO:mod=-lei-	!	!
4A\	.	.	.	1c\	-ley-	.	.
4G\	.	.	.	.	.	.	.
*	*	*Xlig	*	*	*	*	*
=27-	=27-	=27-	=27-	=27-	=27-	=27-	=27-
!	!	!	!	!	!	!LO:MO:mod=!null:null	!
!	!	!	!	!	!	!LO:TX:t=P:problem:kreska pseudotaktowa	!
4F#X\	.	1.d	.	.	.	1r	.
4D\	.	.	.	.	.	.	.
4G\	.	.	.	1B-	.	.	.
!LO:MO:mod=!null:null	!	!	!	!	!	!	!
!LO:TX:t=P:problem:kreska pseudotaktowa	!	!	!	!	!	!	!
4F#\	.	.	.	.	.	.	.
!	!LO:MO:mod=-lei-	!	!	!	!	!	!
1E-X	-ley-	.	.	.	.	1g	Ky-
.	.	2c\	-son	4A/	.	.	.
!	!	!	!	!LO:MO:mod=!null:null	!	!	!
!	!	!	!	!LO:TX:t=P:problem:kreska pseudotaktowa	!	!	!
.	.	.	.	4G/	.	.	.
=28-	=28-	=28-	=28-	=28	=28	=28-	=28-
!LO:MO:mod=!null:null	!	!LO:MO:mod=!null:null	!	!	!	!	!
!LO:TX:t=P:problem:kreska pseudotaktowa	!	!LO:TX:t=P:problem:kreska pseudotaktowa	!	!	!	!	!
1D	-son	1d	.	2A/	-son	2f\	-ri-
*	*	*	*	*	*ij	*	*
!	!	!	!	!	!	!LO:MO:mod=!null:null	!
!	!	!	!	!	!	!LO:TX:t=P:problem:kreska pseudotaktowa	!
.	.	.	.	2d\	Ky-	2d\	-e
!LO:MO:mod=!null:null	!	!	!	!	!	!	!
!LO:TX:t=P:problem:kreska pseudotaktowa	!	!	!	!	!	!	!
1r	.	0r	.	2c\	-rie	2e\	e-
.	.	.	.	2A\	e-	2f\	.
=29	=29	=29-	=29-	=29-	=29-	=29-	=29-
!	!	!	!	!	!LO:MO:mod=-lei-	!	!LO:MO:mod=-lei-
1G	Ky-	.	.	1B-	-ley-	4g\	-ley-
.	.	.	.	.	.	8f\L	.
.	.	.	.	.	.	8e\J	.
.	.	.	.	.	.	4d\	.
!	!	!	!	!	!	!LO:MO:mod=!null:null	!
!	!	!	!	!	!	!LO:TX:t=P:problem:kreska pseudotaktowa	!
.	.	.	.	.	.	4e\	.
2F\	-ri-	2r	.	1A	-son	1f	.
*	*	*	*ij	*	*	*	*
!	!	!LO:MO:mod=!null:null	!	!	!	!	!
!	!	!LO:TX:t=P:problem:kreska pseudotaktowa	!	!	!	!	!
2D\	-e	2d\	Ky-	.	.	.	.
*	*	*	*	*	*Xij	*	*
=30-	=30-	=30	=30	=30-	=30-	=30-	=30-
2E\	e-	2c\	-ri-	2r	.	2g\	.
*	*	*	*	*	*ij	*	*
!	!	!	!	!LO:MO:mod=!null:null	!	!LO:MO:mod=!null:null	!
!	!LO:MO:mod=-lei-	!	!	!LO:TX:t=P:problem:kreska pseudotaktowa	!	!LO:TX:t=P:problem:kreska pseudotaktowa	!
2F#X\	-ley-	2A/	-e	2d\	Ky-	2a\	.
!LO:MO:mod=!null:null	!	!	!	!	!	!	!
!LO:TX:t=P:problem:kreska pseudotaktowa	!	!	!	!	!	!	!
1G	-son	4G/	e-	2B-\	-ri-	2d\	-son
.	.	4A/	.	.	.	.	.
*	*	*	*	*	*	*	*ij
!	!	!	!LO:MO:mod=-lei-	!	!	!	!
.	.	4B-\	-ley-	2G/	-e	2g\	Ky-
.	.	4c\	.	.	.	.	.
=31	=31	=31-	=31-	=31-	=31-	=31-	=31-
*	*ij	*	*	*	*	*	*
!	!	!LO:MO:mod=!null:null	!	!	!	!	!
!	!	!LO:TX:t=P:problem:kreska pseudotaktowa	!	!	!	!	!
1D	Ky-	1d	-son	2A/	e-	2f\	-ri-
!	!	!	!	!LO:MO:mod=!null:null	!	!	!
!	!	!	!	!	!	!LO:MO:mod=!null:null	!
!	!	!	!	!LO:N:acc=#	!	!LO:TX:t=P:problem:kreska pseudotaktowa	!
!	!	!	!	!LO:MO:mod=!null:null	!	!	!
!	!	!	!	!LO:TX:a:t=P:problem:# above	!	!	!
!	!	!	!	!	!LO:MO:mod=-lei-	!	!
.	.	.	.	2Bn\	-ley-	2d\	-e
*	*	*	*Xij	*	*	*	*
2C/	-ri-	1r	.	1.c	.	2e\	e-
!	!	!	!	!	!	!LO:SIC:v:t=custos d	!
2AA/	-e	.	.	.	.	2f\	.
!	!	!	!	!	!	!LO:LB:g=original	!
=32-	=32-	=32-	=32-	=32-	=32-	=32-	=32-
2.BB-/	e-	2r	.	.	.	1d	-lei-
*	*	*	*ij	*	*	*	*
!	!	!LO:MO:mod=!null:null	!	!	!	!	!
!	!	!LO:TX:t=P:problem:kreska pseudotaktowa	!	!	!	!	!
!	!	!	!	!LO:MO:mod=!null:null	!	!	!
!	!	!	!	!LO:TX:t=P:problem:kreska pseudotaktowa	!	!	!
.	.	2G/	Ky-	2B-\	.	.	.
!LO:MO:mod=!null:null	!	!	!	!	!	!	!
!LO:TX:t=P:problem:kreska pseudotaktowa	!	!	!	!	!	!	!
4C/	.	.	.	.	.	.	.
1D	.	2F/	-ri-	2A\	.	2d\	-son
*	*	*	*	*	*	*	*Xij
*	*	*	*	*	*	*	*ij
!	!	!	!	!	!	!LO:MO:mod=!null:null	!
!	!	!	!	!	!	!LO:TX:t=P:problem:kreska pseudotaktowa	!
.	.	2D/	-e	2B-\	.	2d\	Ky-
=33-	=33-	=33-	=33-	=33-	=33-	=33	=33
!	!	!	!	!LO:MO:mod=!null:null	!	!	!
!	!	!	!	!LO:TX:t=P:problem:kreska pseudotaktowa	!	!	!
2C/	.	2E/	e-	1c	.	2G/	-ri-
!	!	!LO:MO:mod=!null:null	!	!	!	!	!
!	!	!LO:TX:t=P:problem:kreska pseudotaktowa	!	!	!	!	!
2AA/	.	2F#X/	.	.	.	2A/	-e
2GG/	.	2G/	.	2B-\	.	2B-/	e-
2FF#X/	.	2A/	.	2.A/	.	2d\	.
=34-	=34-	=34-	=34-	=34-	=34-	=34-	=34-
!	!LO:MO:mod=-lei-	!	!LO:MO:mod=-lei-	!	!	!	!
1GG	-ley-	1B-	-ley-	.	.	1d	-lei-
.	.	.	.	8G/L	.	.	.
.	.	.	.	8F/J	.	.	.
.	.	.	.	2G/	.	.	.
1Dl;;	-son	1Al;>	-son	1F#Xl;>	-son	1dl;<	-son
*	*Xij	*	*Xij	*	*Xij	*	*Xij
==	==	==	==	==	==	==	==
*-	*-	*-	*-	*-	*-	*-	*-
!!!system-decoration: [(s1,s2,s3,s4)]
!!!RDF**kern: > = above
!!!RDF**kern: < = below
!!!RDF**kern: | = vertical stroke
!!!RDF**kern: N = linked
!!!RDF**kern: i = editorial accidental
!!!RDF**kern: l = terminal long
!!!filter-modern: tie -s | humtr -p | sic -sq | shed -e "s/LO:DY:(a|b|rj)/LO:dy:$1/L" | modori -m | autostem -r | shed -e "s/yy//" | shed -k -e "s/\(y([^y])/($1/" | shed -e "s/-//B" | shed -e "s/^(\d+[\/\\]right)/$1yy/I; s/^(\d+[\/\\]left)/$1yy/I" | shed -e "s/^(X?)rep$/$1REP/I" | shed -k -e "s/[<>]//g" | shed -e "s/^custos:/Xcustos:/I" | shed -k -e "s/:TUP:/:tup:/L" | rid -li
!!!NIFC-islandoraID: pl-kk:750
!!!URL-pdf-islandora: https://repozytorium.nifc.pl/islandora/object/pl-kk%3A750/datastream/PDF/view#page=87
!!!URL-scan: https://polish.musicsources.pl/pl/lokalizacje/galeria/rekopisy/5828 @EN{Scan on Polish Music Sources Website} @PL{Skany w portalu Dziedzictwo Muzyki Polskiej w otwartym dostępie}
!!!ONB-nifc: Części mszy: Kyrie, Gloria, Credo, Sanctus, Benedictus, Agnus Dei; skany: C: 0087; A: 0191; T: 0289; B: 0391
!!!ENC: Berenika Jozajtis
!!!END: 2022-05-03
!!!EED: Wojciech Jakubiak-Danek
!!!EEV: 2022-05-11
!!!EED-modern: Antoni Szymański
!!!END-modern: 2022-06-24
